!!!COM:	Compere, Loyset
!!!CDT:	~1445///-1518/08/16
!!!OTL:	Nous sommes de l'ordre de Saint Babouin
!!!AGN:	Song; Chanson
!!!SCT:	Com3028
!!!SCA:	Com3028
!!!voices:	4
**kern	**kern	**kern	**kern
*staff4	*staff3	*staff2	*staff1
*Ivox	*Ivox	*Ivox	*Ivox
*I"Bassus	*I"Tenor	*I"Altus	*I"Superius
*I'B	*I'T	*I'A	*I'S
*clefF4	*clefGv2	*clefGv2	*clefG2
*k[]	*k[]	*k[]	*k[]
*M2/1	*M2/1	*M2/1	*M2/1
*met(C|)	*met(C|)	*met(C|)	*met(C|)
=1-	=1-	=1-	=1-
0r	2c	0r	0r
.	2c	.	.
.	2B	.	.
.	2c	.	.
=2	=2	=2	=2
2F	1d	0r	0r
2F	.	.	.
2E	1e	.	.
2G	.	.	.
=3	=3	=3	=3
2A	2.c	0r	2cc
2F	.	.	2cc
.	8BL	.	.
.	8AJ	.	.
2G	2G	.	2b
2F	2c	.	2cc
=4	=4	=4	=4
2E	2c	2f	1dd
2D	2B	2f	.
1C	1c	2e	1ee
.	.	2g	.
=5	=5	=5	=5
1F	2.c	2a	2.cc
.	.	2f	.
.	4d	.	8bL
.	.	.	8aJ
2c	2e	2g	2g
2F	2f	2a	2cc
=6	=6	=6	=6
1G	1d	2g	2cc
.	.	2g	2b
[1C	2c	2.e	[1cc
.	2r	.	.
.	.	8dL	.
.	.	8cJ	.
=7	=7	=7	=7
1C]	2c	0g	1cc]
.	2c	.	.
1r	2B	.	1r
.	2c	.	.
=8	=8	=8	=8
2F	1d	0r	0r
2F	.	.	.
2E	1e	.	.
2G	.	.	.
=9	=9	=9	=9
2A	2.c	0r	2cc
2F	.	.	2cc
.	8BL	.	.
.	8AJ	.	.
2G	2G	.	2b
2E	2c	.	2cc
=10	=10	=10	=10
2D	2c	2f	1dd
2D	2B	2f	.
1C	1c	2e	1ee
.	.	2g	.
=11	=11	=11	=11
1F	2.c	2a	2.cc
.	.	2f	.
.	4d	.	8bL
.	.	.	8aJ
2c	2e	2g	2g
2F	2f	2a	2cc
=12	=12	=12	=12
1G	1d	2g	2cc
.	.	2g	2b
2A	2c	2e	2cc
2G	2B	[2g	[2dd
=13	=13	=13	=13
1A	1c	4g]	4dd]
.	.	4e	4cc
.	.	2f	1cc
1G	1d	1g	.
.	.	.	2b
=14	=14	=14	=14
1C	1c	2e	1cc
.	.	2r	.
1r	1r	2c	1r
.	.	2d	.
=15	=15	=15	=15
2c	0r	2c	1r
2d	.	2B	.
2c	.	2A	2cc
2B	.	2G	2dd
=16	=16	=16	=16
2A	2c	0r	2cc
2G	2d	.	2b
1r	2c	.	2a
.	2B	.	2g
=17	=17	=17	=17
1r	2A	2r	0r
.	2G	2g	.
2r	1r	2a	.
2G	.	2g	.
=18	=18	=18	=18
2A	1r	2f	2r
2G	.	2e	2g
2F	2r	1r	2a
2E	2g	.	2g
=19	=19	=19	=19
1r	2a	1r	2f
.	2g	.	2e
2r	2f	2r	1r
[2G	2e	[2e	.
=20	=20	=20	=20
2G]	0r	2e]	0r
2A	.	2f	.
2G	.	2e	.
2F	.	2d	.
=21	=21	=21	=21
1E	2r	1e	2r
.	1g	.	1ee
1r	.	1r	.
.	2a	.	2ff
=22	=22	=22	=22
1r	2g	1r	2ee
.	2f	.	2dd
2r	2e	2r	2ee
[2A	2r	[2f	2r
=23	=23	=23	=23
2A]	0r	2f]	0r
2G	.	1e	.
1F	.	.	.
.	.	2d	.
=24	=24	=24	=24
2E	2r	2e	2r
2r	1a	2r	1ff
1r	.	1r	.
.	2g	.	[2ee
=25	=25	=25	=25
0r	1f	0r	2ee]
.	.	.	2dd
.	1e	.	1ee
=26	=26	=26	=26
2r	2r	2r	2r
1A	1c	1e	1.a
2A	2c	2e	.
=27	=27	=27	=27
2A	2c	2e	2cc
2A	2c	2f	2cc
1G	1d	2g	1b
.	.	2g	.
=28	=28	=28	=28
1G	1B	2.d	1g
.	.	4e	.
2F	2c	4f	2a
.	.	4g	.
[2G	[2B	[2e	2g
=29	=29	=29	=29
2G]	4B]	4e]	2b
.	4A	4d	.
2E	1G	1c	2cc
1D	.	.	2dd
.	2F	2B	2ff
=30	=30	=30	=30
2C	2G	2c	2ee
2r	2r	1f	2.dd
1r	1r	.	.
.	.	.	4cc
.	.	2e	[2cc
=31	=31	=31	=31
1r	1r	1d	2cc]
.	.	.	2b
2r	2r	2c	2cc
[2F	[2d	2r	2r
=32	=32	=32	=32
2F]	2d]	0r	0r
2E	1c	.	.
1D	.	.	.
.	2B	.	.
=33	=33	=33	=33
1C	1c	1r	1r
2r	2r	2r	2r
[2B-	[2f	[2d	[2dd
=34	=34	=34	=34
2B-]	2f]	2d]	2dd]
2c	2e	4e	1cc
.	.	4f	.
1G	1d	1g	.
.	.	.	2b
=35	=35	=35	=35
2C	1c	0e	0cc
2D	.	.	.
1E	1r	.	.
=36	=36	=36	=36
1F	2c	0r	0r
.	2d	.	.
1E	1e	.	.
=37	=37	=37	=37
2D	1f	1r	0r
2D	.	.	.
2C	1e	2c	.
2C	.	2d	.
=38	=38	=38	=38
2r	0r	1e	1r
1c	.	.	.
.	.	1f	2cc
2B	.	.	2dd
=39	=39	=39	=39
1c	2r	1e	1ee
.	1c	.	.
1F	.	2a	1ff
.	2d	2a	.
=40	=40	=40	=40
1C	2e	2g	1ee
.	2e	2g	.
2D	2f	2f	2dd
2C	2e	2g	2ee
=41	=41	=41	=41
1D	1d	1f	2ff
.	.	.	2ff
2r	2c	2g	2ee
2G	2B	2g	2dd
=42	=42	=42	=42
2C	2c	2g	1ee
2C	2c	2g	.
1G	1d	1g	1dd
=43	=43	=43	=43
1C	1r	1g	2ee
.	.	.	2ff
1r	2e	1r	2gg
.	2f	.	2ff
=44	=44	=44	=44
0r	2g	0r	0dd
.	2f	.	.
.	1d	.	.
=45	=45	=45	=45
1r	0r	2e	0r
.	.	2f	.
2E	.	2g	.
2F	.	2f	.
=46	=46	=46	=46
2G	0r	0d	0r
2F	.	.	.
1D	.	.	.
=47	=47	=47	=47
2C	2c	2G	2ee
2BB-i	2d	2B-	2ff
2C	2c	2G	2ee
2D	2B	2F	2dd
=48	=48	=48	=48
1C	1c	1G	1ee
2c	2e	1r	2cc
2B	2f	.	2dd
=49	=49	=49	=49
2c	2e	2g	2cc
2G	2d	2g	2b
1C	2c	2g	1cc
.	2G	2g	.
=50	=50	=50	=50
0C	2c	[0g	1r
.	2d	.	.
.	1e	.	1g
=51	=51	=51	=51
1r	1c	0g]	1cc
1G	1r	.	1dd
=52	=52	=52	=52
1c	0r	1r	0ee
1d	.	1G	.
=53	=53	=53	=53
0e	0r	1.c	0cc
.	.	2d	.
=54	=54	=54	=54
1c	1.c	0e	0r
1r	.	.	.
.	2d	.	.
=55	=55	=55	=55
1C	1e	1c	0r
1D	1f	1r	.
=56	=56	=56	=56
1E	1e	1c	0r
1F	1r	1d	.
=57	=57	=57	=57
1E	2r	1e	1cc
.	1c	.	.
1D	.	1f	1dd
.	2B	.	.
=58	=58	=58	=58
2C	1c	1e	1ee
1c	.	.	.
.	1d	1r	1ff
2B	.	.	.
=59	=59	=59	=59
2c	2e	0r	2ee
2d	2d	.	2ff
2c	2e	.	2gg
2d	2f	.	2ff
=60	=60	=60	=60
1G	1g	1r	1dd
1c	1e	1g	1cc
=61	=61	=61	=61
1G	1d	1g	1cc
1G	1d	1g	1b
=62	=62	=62	=62
1C	2c	1e	1cc
.	2c	.	.
1r	2e	1r	2r
.	2f	.	2cc
=63	=63	=63	=63
0r	2.g	0r	2ee
.	.	.	2ff
.	4f	.	.
.	4e	.	4gg
.	4d	.	4ff
.	[2g	.	4ee
.	.	.	4dd
=64	=64	=64	=64
0r	2g]	0r	2ee
.	2f	.	1dd
.	4f	.	.
.	4e	.	.
.	4d	.	2cc
.	4c	.	.
=65	=65	=65	=65
1r	2d	0r	2cc
.	2d	.	2b
2r	1c	.	1cc
2C	.	.	.
=66	=66	=66	=66
2E	0r	2r	0r
2F	.	2c	.
2.G	.	2e	.
.	.	2f	.
4F	.	.	.
=67	=67	=67	=67
4E	0r	4g	0r
4D	.	4f	.
1G	.	4e	.
.	.	4d	.
.	.	2e	.
[2F	.	[2d	.
=68	=68	=68	=68
4F]	0r	2d]	0r
4E	.	.	.
4D	.	2c	.
4C	.	.	.
2D	.	2c	.
2D	.	2B	.
=69	=69	=69	=69
2C	1r	2c	2cc
4BB	.	2r	2dd
4BB	.	.	.
2C	2r	1r	2ee
2E	2c	.	2gg
=70	=70	=70	=70
2D	2d	0r	2ff
2C	2e	.	2ee
2G	2g	.	1dd
2r	2f	.	.
=71	=71	=71	=71
1r	2e	2c	0r
.	2d	2d	.
2r	1r	2e	.
2C	.	2g	.
=72	=72	=72	=72
2D	0r	2f	0r
2E	.	2e	.
2G	.	1d	.
2F	.	.	.
=73	=73	=73	=73
2E	1r	0r	2gg
2D	.	.	2ff
1r	2g	.	2ee
.	2f	.	2dd
=74	=74	=74	=74
0r	2e	0r	2gg
.	2d	.	2ff
.	2g	.	2ee
.	2f	.	2dd
=75	=75	=75	=75
2G	2e	1r	0r
2F	2d	.	.
2E	1r	2g	.
2D	.	2f	.
=76	=76	=76	=76
2G	1r	2e	0r
2F	.	2d	.
2E	2c	2g	.
2D	2d	2f	.
=77	=77	=77	=77
2C	2e	2e	0r
2D	2f	2d	.
2E	2e	2c	.
2F	2r	2d	.
=78	=78	=78	=78
2D	2c	2e	2cc
2D	2B	2f	2dd
4C	2c	2e	2ee
2c	.	.	.
.	2d	2r	2ff
4B	.	.	.
=79	=79	=79	=79
4c	4e	1r	4ee
4d	4d	.	4ff
4c	4e	.	4gg
4d	4f	.	4ff
2G	2g	2r	2dd
2c	2e	2g	2cc
=80	=80	=80	=80
2G	2d	2g	2cc
2G	2d	2g	2b
[1Cl	[1cl	[1e	[1ccl
=81	=81	=81	=81
0C]	0c]	2e]	0cc]
.	.	2f	.
.	.	1gl	.
==	==	==	==
*-	*-	*-	*-
!!!RDF**kern: l=long note in original notation
!!!RDF**kern: i=editorial accidental
!!!ENC:	Megan K. Eagen 2013/12/18
!!!END:	2013/12/18/
!!!EED:	Jesse Rodin
!!!EEV:	2014/02/23/
!!!ONB:	Translated from MusicXML and edited on 2014/02/23/ by Craig Sapp
!!muse2ps: C^@{COM}^i2I150v85,85,85,150Q16
